X:1
T:Trio Sonata in F major, HWV 389
T:Trio Sonata in F-Dur, Op.2 No.4 , HWV 389
T:George Frideric Handel (1685 - 1759)
T:for Oboe ,Violin & Basso continuo Transcribed for 3 Recorders from IMSLP#356375 PDF File
T:Public Domain - Non-PD US
T:Public Domain - Non-PD US
T:Public Domain - Non-PD US
T:Public Domain - Non-PD US
T:Public Domain - Non-PD US
T:Public Domain - Non-PD US
T:Public Domain - Non-PD US
T:Public Domain - Non-PD US
C:G. F. Handel
Z:Public Domain - Non-PD US
%%score [ 1 2 3 ] { ( 4 5 7 ) | 6 }
L:1/8
Q:1/4=54
M:4/4
K:F
V:1 treble nm="Alto Rec." snm="A."
V:2 treble nm="Tenor Rec." snm="T."
V:3 bass+8 nm="G-Bass Rec." snm="Gb."
V:4 treble nm="Harpsichord" snm="Hch."
V:5 treble 
V:7 treble 
V:6 bass 
V:1
"^1. Larghetto" AB cTd/>c/ c3 d | efga (e/>d/c) z/ f/g/>a/ | de/f/ TB>A ATd/>c/ c2 | %3
 z (B/>A/) A2 z (d/4e/4f/) Te>f | f(A/4=B/4c/) TB>c c2 z c | d2 z (g/4a/4b/) (e/d/c) z d | %6
 bbbb Tba z a | ggc'a f2 z f | eeaf d2 z g | cc f3 e/d/ eg | Tag=bc' Ted z g | %11
 (f/4>g/4a/)g z a Tfe z a | fe/d/ eTd/c/ c2 c'2- | c'b z/ c'/b/a/ b/a/g z b | b a2 g/f/ e/d/c z c | %15
 Tdc(ef) TAG z (Tf/>e/) | e2 z d/>c/ c2 z b | Ta>g Tg>f f(Td'/>c'/) c'2 | z (Tb/>a/) a2 z gcf | %19
 Tdcef TAG z Tf/>e/ | eTA/>G/ GTd/>c/ c3 B | TA>G TG>F FTd/>c/ c2- | cf/d/ T=B>c c4 |] %23
[M:3/8][Q:1/4=72]"^2. Allegro" cfTe | fc z | z3 | FfTe | (f/c/)(f/c/)(g/c/) | (a/f/)(a/f/)(b/g/) | %29
 (c'/a/)(d'/c'/)(b/a/) | g c'2- | c' b2- | ba/d'/c'/d'/ | g/c/g/c'/b/c'/ | f/d/f/b/a/b/ | %35
 e/c/e/a/g/a/ | d/G/d/g/f/g/ | e/c/d/e/f/e/ | f z z | z/ d/e/f/g/f/ | g z z | z/ e/f/g/a/g/ | %42
 a/e/f/g/a/g/ | a/f/g/a/b/a/ | b/G/B/d/g/f/ | e/g/c/e/f/e/ | f/g<Tef/ | f.c.c | c3- | c3- | %50
 c/B/d/c/B/A/ | G.g.g | g3- | g3- | g/f/a/g/f/e/ | d/G/c/g/e/c/ | a/c/f/a/d'/a/ | =b/g/a/b/c'/c/ | %58
 f/A/B/a/g/f/ | e g2- | g f2- | f/a/g/f/e/d/ | e/f<Tdc/ | c3 :: GcT=B | cGT=B | c/G/c/G/d/G/ | %67
 e/c/d/e/f/e/ | fcTe | fcTe | f/c/f/c/g/c/ | a/c/f/c/g/c/ | a/g/b/a/g/f/ | e/A/^c/e/a/e/ | %74
 f/d/f/a/d'/a/ | b/G/B/d/g/d/ | e/c/e/g/c'/g/ | a/F/A/c/f/c/ | d/B/G/f/e/d/ | a3- | a3- | %81
 a/g/b/a/g/f/ | ea/g/f/e/ | f/g<Ted/ | d3- | d3- | d/d/g/d/a/d/ | b/d/g/d/a/d/ | b/a/g/f/e/d/ | %89
 c3- | c3- | c/c/(f/c/)(g/c/) | a/c/a/f/b/g/ | c'/b/d'/c'/b/a/ | gc z | z/ F/A/c/f/c/ | %96
 d/G/B/d/g/d/ | e/A/c/e/a/e/ | f/B/d/f/b/f/ | g/c/e/g/c'/g/ | a/c/f/d'/c'/d'/ | g/c/g/c'/b/c'/ | %102
 f/d/f/b/a/b/ | e/c/e/a/g/a/ | d/G/d/g/f/g/ | e/c/d/e/f/e/ | f/g<Tef/ | f d'2- | d' c'2- | c' b2- | %110
 b>c'a/g/ | a/b/aTg/f/ | f3 :| z/8 |[M:3/4][Q:1/4=60]"^3. Adagio" z2 f2 (e3/2d/4^c/4) | d2 A2 z2 | %116
 b2 a3/2(g/4f/4) (ef/g/) | Tf4 e2 | z2 (e/>f/g) f>g | e3 a d2 | z2 ^cd (Td3/2c/4d/4) | e2 A4 | %122
 z4 d2- | d4 (^cd/e/) | Td4 ^c2 | z6 | z2 B2 A2 | z2 G2 d2 | ^c2 A2 z2 | z2 d2 e>f | B2 b4- | %131
 b2 a2 A2 | =B^c (Tc3 B/c/) | d6- | d2 c>=B c2 | cd T=B3 A | A2 _e4- | e2 dc BA | B2 b4- | %139
 b2 ag fe | f3 e (d/e/)T^c | d2 A2 z2 | b2 (ag/f/) (ef/g/) | Tf4 e2 | z2 g2 ^f2 | z2 b2 _a2 | %146
 a2 e2 f2 | d2 B3 A | g6- | g3 a f2 | ed T^c3 d | d4 z G | e2 z2 f2 | Tg6 | a6 |] %155
[M:4/4][Q:1/4=100]"^4. Allegro" c4 d3 e/d/ | c2 f2 B4 | A2 a3 ggf | ecfA BdcB | AFAB cF f2- | %160
 fefg agab | gGcB AF f2- | f2 ef de/f/ gf | ed c4 B2- | B2 A4 G2 | F2 z4 b2- | b2 a2 g4 | %167
 f2 z4 z2 | z2 z e fagf | ec g2 a3 b/a/ | g2 c'2 f4 | e2 e3 ddc | =BG c4 TB2 | c4 z4 | %174
 z2 z A BdcB | AF d2 z G c2 | z f b4 ad' | g2 c'4 b2- | b2 a4 g2- | gffe d2 b2- | b2 a2 g4 | %181
 f4 e4 | dad'c' bagf | ^cA a3 d g2- | ge f4 e2- | edcB G z B2 | A^c d4 c2- | c2 BG AA=B=c | %188
 =BG c4 TB2 | c2 z2 z2 z g | a=b c'4 b2- | b2 ag fedc | =B2 e2 f3 g/f/ | e2 a2 Td4 | c2 c'3 =bba | %195
 ^ge a4 Tg2 | a2 z e a^fga | d2 z d gefg | c2 z c d2 z d | e2 z c f2 z f | g2 z e a2 z b | %201
 g2 z a f2 z g | ec c'4 b2- | b2 a4 g2- | gffe dB b2- | b2 ab g4 | fF B4 A2 | d3 e fcfe | %208
 d4 c2 z2 | z2 b3 aag | fefg c3 c | BdcB AF c2 | d3 e/d/ c2 f2 | B4 A2 a2- | aggf ec f2- | %215
 f2 Te2 f3 e | dcBA !fermata!G2 z2 |[Q:1/4=60]"^Adagio" z2 A2 TG3 F | F8 |] %219
[M:12/8][Q:3/8=100]"^5. Allegro" z2 z |: z AB (cA)B (cA)B | c3 z2 f efg cdB | A3 z2 f efg cdB | %223
 AcB cde fed edc | =Bcd efg ABc def | GA=B cde fga gaf | efg a=bc' bc'd' gc'b | agf edc =Bdg Acf | %228
 Gce dec =BAG f3- | f3- f>ga gfe dcd | c3 f3- f3- f>ga | gfe dc'=b c'ba gfe | agf gfe dec Gc=B | %233
 c3 :: z ef gef gef | g3 z ga bag agf | g2 c g3- gab abg | fed b3- b3 a3- | a3 g3- gab a>d'c' | %239
 bag gab agf ede | dfe f3- f3- f3- | f_ed ecd e3- e3- | edc d=ef bag agf | ecB ABc- cdc Bcd- | %244
 ded cde- efe def- | fgf efg- gag fga | bag agf efg abc' | def gab cde fga | bc'd' c'd'b agf bag | %249
 c'ba gaf egc' dfb | cea Bdg Acf GBe | Fba gaf edc B3- | B4 cd cBA GFG | F3 B3- B3- B-B/c/d | %254
 cBA Gfe fba gaf | edc BAG Acf Gfe | f3 :| %257
V:2
 FG ATB/>A/ A3 G/F/ | c4- cE F2- | FFFE F2 z (G/>F/) | F2 z (E/>D/) DF B2 | AC TF2 E2 z E | %5
 F2 z D Gc f2- | f2 e2 fF f2- | f2 e3 A d2- | d2 c3 F B2- | BA/G/ Ad =BG z c | ccfe Tc=B z c | %11
 cc z c T=Bc z A | =BccTB c2 z2 | dg z/ a/g/^f/ gd z g | cfdB c2 z A | FFBA TFE z2 | %16
 z A/>G/ G2 z F/>E/ Eg | c f2 Te f2 z (Tg/>f/) | f2 z (Te/>d/) d2 z c | FFBA TFE z2 | %20
 z TE/>D/ D2 z TF/>E/ EG- | G F2 TE F2 z G/>F/ | F4 E4 |][M:3/8] AcG | AF z | z3 | CAB | cAc | %28
 (f/c/)(f/c/)(g/c/) | (a/f/)(b/a/)(g/f/) | e/c/e/a/g/a/ | d/D/d/g/f/g/ | e/c/ f2- | f e2- | e d2- | %35
 d c2- | c B2- | BAG | z/ c/d/e/f/e/ | f z z | z/ d/e/f/g/f/ | g/c/d/e/f/e/ | f/c/d/e/f/e/ | %43
 f/d/e/f/g/f/ | gdB- | BA/G/c/B/ | A/B<TGF/ | F.A.A | A3- | A3- | A/G/B/A/G/F/ | Ee.e | e3- | e3- | %54
 e/d/f/e/d/c/ | =B g2- | g f2- | f e2- | e d2- | d/G/c/A/B/G/ | A/c/d/=B/c/A/ | =B/G/A/B/c/B/ | %62
 c/d<T=Bc/ | c3 :: EGD | EEF | GEG | cG z | AAB | cAB | cAc | fce | f/e/g/f/e/d/ | ^cA z | AD z | %75
 dG z | GC z | cF z | FD z | z/ A/(d/A/)(e/A/) | (f/A/)(d/A/)(e/A/) | (f/e/)(g/f/)(e/d/) | %82
 ^c/=B/AA/c/ | d/e<T^cd/ | d3- | dBT^F | GBd | ddT^f | g(B/A/)(G/F/) | EATE | FATE | FAc | %92
 z/ c/(f/c/)(g/c/) | a/g/b/a/g/f/ | e/C/E/G/c/G/ | AF z | dD z | eE z | fF z | gGg- | g f2- | %101
 f e2- | e d2- | d c2- | c B2- | B>cA/G/ | A/B/G/c/B/c/ | A/c/f/b/a/b/ | g/e/A/a/g/a/ | %109
 f/d/G/g/f/g/ | e>ef/e/ | f/g/fTe | f3 :| z/8 |[M:3/4] z6 | z6 | z6 | z6 | z6 | z6 | z6 | %121
 z2 f3 (e/d/4^c/4) | d2 A2 z2 | b2 a3/2(g/4f/4) (ef/g/) | Tf4 e2 | z2 (e/>f/g) f>g | e4 d2 | %127
 z2 ^cd (Td3/2c/4d/4) | e2 f2 g>a | d2 z4 | z2 f2 g2 | c4 F2- | F2 E2 A2 | F2 f>e f>g | e4 z ^G | %135
 A2 A2 T^G2 | A4 z2 | z2 a4- | a2 gf ed | ^c4 z2 | z2 AG (F/G/)TE | D4 d2- | d4 ^c2 | Td4 ^c2 | %144
 z2 d2 c2 | z6 | z6 | z2 _e2 ^c2 | d2 B2 G2 | e2 ^c2 A2 | GF TE3 D | D2 B4- | B2 A2 z A | d6 | %154
 ^c6 |][M:4/4] z8 | z8 | z8 | z8 | F4 A3 B/A/ | G2 c2 F4 | E2 e3 ddc | =BG c4 B2 | cBAG FAGF | %164
 EC z c dcde | fcfe d3 e/d/ | ce f4 Te2 | f2 z A BdcB | AF c4 =B2 | g6 f2- | f2 e4 d2- | %171
 dccB A2 f2- | f2 e2 d4 | c2 z E FGAF | EC F4 TE2 | F2 z F G2 z E | F2 z d ec f2- | %177
 fe/d/ ec d3 e/d/ | c2 f2 B4 | A2 a3 ggf | ec f4 e2- | e2 d4 T^c2 | d2 fa gfed | ^c2 z c d3 e/d/ | %184
 ^c2 z a b3 c'/b/ | a2 d'2 g4- | g2 f2 ee^fg | ^fd g4 =f2- | f2 ec ddef | ccgG A=B c2 | %190
 c2 z c defg | ec c'4 =ba | ^g2 e4 d2- | d2 c4 =B2- | Baag f2 d2- | d2 c2 =B4 | A=B c3 ccc | %197
 cB/A/ B3 BBB | BA/G/ A2 z F G2 | z G A2 z A B2 | z B c2 z c d2 | z =B c2 z A B2 | c4 d3 e/d/ | %203
 c2 f2 B4 | A2 a3 ggf | ec f4 Te2 | f2 z F EDCA- | AG/F/ G2 c2 C2 | F2 B4 A2- | AGGF EC c2- | %210
 c2 B4 A2 | G4 c4- | c2 B4 A2- | A2 G4 FE | d2 b4 ab | g4 f2 F2- | FAGF !fermata!e2 z2 | %217
 z2 fF F2 TE2 | F8 |][M:12/8] z2 z |: z FG (AF)G (AF)G | A3 z2 A GAF GFE | F3 z2 A (GA)B (EF)G | %223
 (FA)G A=Bc dcB gfe | d3 G3- G3 F3- | F3 EFG A=Bc Bcd | cde f3- f3 efg | fed c=BA GBe FAd | %228
 EGc AGF G2 z z3 | z3 z2 f edc =BAB | c3 z3 z3 z2 f | edc =BAG egf edc | fed edc FGE EFD | E3 :: %234
 z cd ecd ecd | e3 z ef gfe fed | e3- efd ^c2 c d2 e | A3 z gf efd cfe | def efd ^c3 d3 | %239
 d8 d ^c=Bc | d3 z dc =Bcd GAB | c2 G CcB ABc FGA | B2 F B2 c gfe fed | cAG FGA- ABA GAB- | %244
 BcB ABc- cdc Bcd- | ded cde- efe def | gfe fed g3 c3- | c3 B6 ABc | def efg fed gfe | %249
 agf efd cea Bdg | Acf GBe FAd EGc | Adc BcA G3 z3 | z3 z2 B AGF EDE | F3 z3 z3 z2 B | %254
 AGF EAG Adc BcA | GBA GFE FAd cdB | A3 :| %257
V:3
 F,,4- F,,G,,A,,B,, | C,D,E,F, C,B,,A,,F,, | B,,A,,G,,C, F,,2 z (E,/>D,/) | %3
 D,2 z (C,/>B,,/) B,,A,,G,,C, | F,,F,D,G,, C,G, C2- | CF, B,3 B,A,B, | G,A,/B,/ CC, F,F,/G,/ A,B, | %7
 CC, z C, D,E,F,G, | A,A,, z A,, B,,C,D,E, | F,F,, z D, G,=B,CE | FEDC G,G,, z E, | %11
 F,E, z F, D,C, z F, | D,C,G,G,, C,C/B,/ A,G, | ^F,G,DD, G,G,,G,=F, | E,F,B,,D, C,CA,F, | %15
 B,,A,,G,,F,, C,C,, z D | CC,B,,B, A,A,,G,,E, | F,A,,/>B,,/ C,C,, F,,2 z TE,/>D,/ | %18
 D,2 z TC,/>B,,/ B,,2 z A,, | B,,A,,G,,F,, C,C,, z D | CC,B,,B, A,A,,G,,E, | F,B,,C,C,, F,,2 z E, | %22
 D,4 C,4 |][M:3/8] F,,A,,C, | F,/C,/F,/C,/G,/C,/ | A,/C,/F,/C,/G,/C,/ | A,/C,/F,/C,/G,/C,/ | %27
 A,F,E, | F,F,, z | F,F,,B,, | C,CA, | F,G,G,, | C,D,B,, | C,CA, | DB,G, | CA,F, | B,B,,G,, | %37
 C,CB, | A,F,E, | D,DC | B,A,G, | CE,C, | F,F,E, | D,D,C, | B,,G,,B,, | C,C,/B,,/A,/G,/ | %46
 F,/B,,/C,C,, | F,,/C,/F,/C,/G,/C,/ | A,/C,/F,/C,/G,/C,/ | A,/C,/F,/C,/G,/C,/ | A,F,,B,, | %51
 C,/G,/C/G,/D/G,/ | E/G,/C/G,/D/G,/ | E/G,/C/G,/D/G,/ | EC,F, | G,E,C, | F,D,F, | G,CA, | D,G,G,, | %59
 C,E,C, | F,F,,D, | G,G,,C, | F,G,G,, | C,3 :: C,,E,,G,, | C,/G,,/C,/G,,/D,/G,,/ | E,C,=B,, | %67
 C,>B,A,/G,/ | F,/C,/F,/C,/G,/C,/ | A,/C,/F,/C,/G,/C,/ | A,F,E, | F,A,C | F,D,G, | A,A,, z | %74
 D,A,, z | G,G,, z | C,G,, z | F,F,, z | B,B,, z | A,,F,,A,, | D,F,,A,, | DG,G,, | A,,^CD | %83
 G,A,A,, | D,/D,/G,/D,/A,/D,/ | B,/D,/G,/D,/A,/D,/ | B,G,^F, | G,B,,D, | G,,2 z | %89
 z/ C,/F,/C,/G,/C,/ | A,/C,/F,/C,/G,/C,/ | A,F,E, | F,F,, z | F,F,,B, | CC,,E, | F,F,, z | %96
 B,B,, z | CC, z | DD, z | E,C,E, | F,D,B,, | C,CA, | DB,G, | CA,F, | B,B,,G,, | C,CD | B,CC, | %107
 F,F,D, | E,A,A,, | D,G,G,, | C,>C,F, | B,,C,C,, | F,3 :| z/8 |[M:3/4] D,2 D2 A,2 | B,2 F,2 z2 | %116
 G,2 A,2 A,,2 | D,2 D,,2 A,2 | z2 B,2 A,2 | G,4 F,2 | z2 E,2 D,2 | A,2 A,,2 A,2 | B,2 F,2 z2 | %123
 G,2 A,2 A,,2 | D,2 D,2 A,2 | z2 B,-B, A,2 | G,4 F,2 | z2 E,2 D,2 | A,2 D2 A,2 | B,2 B,2 A,2 | %130
 G,2 D,2 E,2 | F,4 F,,2 | G,,2 A,,4 | D,,2 D2 =B,2 | _A,2 E,2 =A,2 | F,>D, E,2 E,,2 | A,,4 G,2 | %137
 ^F,6 | G,4 G,,2 | A,,2 A,2 ^C2 | D2 A,4 | B,2 F,2 z2 | G,2 A,2 A,,2 | D,2 D,,2 A,,2 | z2 B,2 A,2 | %145
 z2 D,3 E, | ^C,2 A,,2 D,2 | F,2 G,2 A,2 | B,2 G,2 E,2 | ^C,2 A,,2 D,2 | G,2 A,2 A,,2 | D,4 z B,, | %152
 C,2 F,2 z F,, | B,,6 | A,,6 |][M:4/4] F,G,A,F, B,B,,D,B,, | F,G,A,F, G,F,E,C, | %157
 F,G,A,F, B,B,, B,2- | B,2 A,F, G,2 C,2 | F,,2 z4 z2 | z8 | z8 | z8 | C,4 D,3 E,/D,/ | %164
 C,2 F,2 B,,4 | A,,2 A,3 G,G,F, | E,CDA, B,DCB, | A,F, F4 E2 | F2 EC D2 G,2 | C,D,E,C, F,G,A,F, | %170
 CC,E,C, D,C,=B,,G,, | C,D,E,C, F,G,A,F, | G,E,A,G, F,D,G,F, | E,C, C4 B,2- | B,2 A,F, G,2 C,2 | %175
 F,2 z D, E,2 z A,, | D,2 z G, C2 DB, | C2 z A, F,D,G,F, | E,C,D,F, G,,F,E,C, | F,G,A,F, B,CDB, | %180
 CA,DC B,G,CB, | A,F,B,A, G,E,A,G, | F,D, D2 G,2 z2 | A,,4 B,,3 C,/B,,/ | A,,2 D,2 G,,4 | %185
 F,,2 F,3 E,E,D, | ^C,A,,B,F, G,E,A,A,, | D,D_EB, CA,DD, | G,G,,A,E, F,D,G,G,, | %189
 C,D,E,C, F,G,A,E, | F,G,A,E, F,D,G,G,, | C,E,A,,C, D,E,F,D, | E,D,C,A,, D,E,F,D, | %193
 A,=B,CA, B,A,_A,E, | A,=B,CC, D,E,F,D, | E,EFC D=B,EE, | A,A,,A,G, ^F,D,E,F, | %197
 G,G,,G,F, E,C,D,E, | F,F,, z A,, B,,A,,B,,G,, | C,B,,C,A,, D,C,D,D,, | E,D,E,C, F,E,F,D, | %201
 E,D,E,A,, D,C,D,G,, | C,2 z4 z2 | z8 | z8 | z4 C,4 | D,3 E,/D,/ C,2 F,2 | B,,4 A,,2 A,2- | %208
 A,G,G,F, E,C,F,F,, | B,,C,D,B,, C,2 z C, | D,C,D,E, F,C, F,2- | F,2 E,2 F,2 z A, | %212
 B,A,G,F, E,C,D,F, | G,,F,E,C, F,G,A,F, | B,B,,D,B,, C,CDA, | B,G,CC, D,F,A,,A, | %216
 B,B,,D,B,, !fermata!C,2 z2 | z2 F,,2 C,2 C,,2 | F,,8 |][M:12/8] F,3 |: F,,3 F,3 z3 | %221
 F,,2 G,, A,,G,,F,, C,2 D, E,D,C, | F,2 G, A,G,F, C3 C,3 | F,3 z2 E, D,2 G, E,2 F, | %224
 G,3 E,3 F,3 D,3 | E,3 A,2 G, F,E,D, G,2 G,, | C,3 A,,2 F,, G,,A,,=B,, C,D,E, | %227
 F,3- F,3- F,2 E, E,2 D, | D,2 C, F,,G,,A,, G,,2 z z3 | z3 z2 =B, C2 F, G,2 G,, | %230
 C,3 z3 z3 z2 =B, | C2 F, G,2 G,, C,3 z2 C, | C3 C,D,E, F,2 C, G,2 G,, | C,3 :: C,,3 C,3 z3 | %235
 C3 C,3 C3 z3 | C3 B,3 A,2 G, F,2 E, | D,3 G,3 C3 F,3 | B,3 B,,3 A,,2 G, F,E,D, | %239
 G,2 A, B,A,G, F,E,D, A,2 A,, | D,3 D,,3 G,,3 =B,,2 G, | C,3 z2 C, F,,2 G,, A,,G,,F,, | %242
 B,,3 z2 A, G,2 C F,2 B, | C2 C, F,2 F,, B,,3 z3 | A,,3 z3 D,3 z3 | C,3 z3 F,3 z3 | %246
 B,,3 F,,3 C,3 A,3 | B,3 G,3 A,3 F,3 | B,,3 C,3 F,-F,B, G,2 C | A,2 B, C2 F, C,2 A,, D,2 E, | %250
 F,2 F,, B,,2 G,, F,,3 C,3 | D,2 F, B,,2 F,, C,3 z3 | z3 z2 E, F,2 B,, C,2 C,, | F,,3 z3 z3 z2 E, | %254
 F,2 B,, C,2 C,, F,,2 F,, B,,2 F,, | C,3 z2 C, F,2 F,, C,2 C,, | F,,3 :| %257
V:4
 [CFA][B,G][A,F][B,DF] F2 [Fc]B/A/ | [EG]2 [Gc][FAc] [EGc]2 [Fc][Ac] | dcBB A2 z [Gc] | %3
 cB z [EA] [DG][CF][B,F][B,E] | [A,CF][CA] [F=B]2 [EGc]2 [EG]2 | [DF]2 [DG]2 [CEG]2 [CFc][Fd] | %6
 [EB]2 [EB]2 [FB]A/B/ [Fc][FA] | [FG]2 [Ec]2 [EFA]2 AB | [EA]3 c [DFc]2 B2 | %9
 BA z [FA] [D=B][Gd][Ge][Gc] | c2 =Bc [EGc][DB] z [Gc] | c2 z [Af] [G=Bf][Gce] z [Ac] | %12
 [F=B] [EGc]2 [DGB] [EGc]2 [Ec]2 | d2 cB/A/ [DB]2 [DGB]2 | [GB] A2 B [EG][EGc][Fc][Ac] | %15
 dcBA [CFA][EG] z [FB] | [EB][EA][DA][DG] [EGc][Fc][GB][CGB] | [CA][CF][CFG][CEG] [FA]2 z [Gc] | %18
 cB z [EA] [DG]2 z [Fc] | dcBA [CFA][CEG] z [FB] | [EB][EA][DA][DG] [EGc][Fc][GB][CGB] | %21
 A[FG][FG][EG] [CFA]2 z [CG] | [CF]2 [=B,F]2 [G,CE]4 |][M:3/8] [FAc][Fc][EGc] | [FAc][Af][Ge] | %25
 [Fcf][FAc][Ec] | [Fc][CA][B,EG] | [CF][CA][CGc] | [CA]2 z | [CA][DB][DFB] | [EG][EA][Ec] | %31
 [Ac]B[GB] | [EB][FA][FBd] | c2 c | B2 [GB] | BAA | [DG]2 [GBd] | [GBe] [Gce]2 | [Fcf][Ac][Gc] | %39
 [FAd]3 | [Gd]2 [GBd] | [ce] c2 | [FAc]2 [Gc] | [FAd]2 [FA] | GB[Gd] | [EGc] [EG]2 | [FA]/G/ G2 | %47
 [CFA][FA][EG] | [CF][FA][EG] | [CF][CA][Ec] | [Fc][Ac][FGd] | [EGc][EGc][G=B] | [Gc][Ge][G=Bd] | %53
 [Gc][Ge][G=Bd] | [Gc][Ge][Acd] | [=Bd] c2 | A2 d | [F=Bd][Ec][ce] | f3 | e2 e | [Ae][Ad][Ad] | %61
 [F=Bd]2 [EGc] | [FAc] [D=B]2 | [EGc]3 :: [EG][CG][DG=B] | [EGc][Ge][F=Bd] | [Gc][Ge][Gd] | %67
 [EGc] [Ge]2 | [Acf][FAc][EGc] | [Fc][CA][CEG] | [CF][CA][CGc] | [CA][CF][EG] | A d2 | [EA^c]2 z | %74
 [FAd]2 z | [GBd]2 z | [EG=c]2 z | [FAc]2 z | [Bd]2 z | [EA^c][DAd][EAc] | [FAd][DAd][EA^c] | %81
 [FAd] [GBd]2 | [EA^c][Ae][Fd] | [EBd] ^c2 | [^FAd][DGB][=CFA] | [DG][DGB][C^FA] | GBA | %87
 BG[A,D^F] | [B,DG]2 z | z [=FA][EG] | [CF][FA][EG] | [CF][CA][CGc] | [CFA]2 z | [CA]2 [DG] | %94
 Gc[Gc] | [CA]2 z | [DG]2 z | [EA]2 z | [FB]2 z | c2 c | [GAc][FAd][FBd] | [Gc]2 [cf] | edd | dcc | %104
 cBB | [EB]2 [FA] | [DA] [EG]2 | [CA][DA][DFB] | [DA]2 [EG] | [CF][B,DG][DB] | [EB]>[EG][FA] | %111
 [DA][CFA][CEG] | [A,CF]3 :| z/8 |[M:3/4] [FAd]2 [DFA]3 [^CEA] | D2 A2 z2 | B2 A2 G2 | %117
 [DF]2 [DFA]2 [^CEA]2 | z2 [EG]2 [=CF]2 | [B,EG]4 [DA]2 | z2 [G^c]2 [FAd]2 | %121
 [EA^c]2 [DFA]3 [^CEA] | FG A2 z2 | [DEB]2 [DFA]2 [^CEA]2 | [DFA]4 [^CEA]2 | z2 [EG]2 [CF]2 | %126
 [B,EG]4 [DA]2 | z2 [G^c]2 [FAd]2 | [EA^c]2 [Fd]2 [F=c]2 | [Fd]2 [Fd]2 [Fc]2 | [FB]4 [CGB]2 | %131
 B2 A4 | GF [^CE]4 | FG [FA]4 | =B2 ^G2 A2 | A2 A2 ^G2 | [CA]4 [C=EA]2 | A6 | A2 GA B2 | B2 A2 A2 | %140
 A2 A3 A | D2 A2 z2 | [DEB]2 [DFA]2 [^CEA]2 | [DFA]4 [^CEA]2 | z2 [DG]2 [C^FA]2 | %145
 z2 [=FB]2 [E^G=B]2 | A2 ^c2 [FAd]2 | [FAd]2 [_EB]2 [^C=EA]2 | [DG]2 B4 | A4 [DFA]2 | %150
 [DFB]2 [^CEA]4 | A2 B4 | [EB]2 [CA]4 | A2 G4 | [^CEA]6 |][M:4/4] ABcA [Fd]2 [FB]2 | %156
 ABcA [DB]2 [CGB]2 | ABcA AG Gd | [EGc]2 cA [FB]2 [EB]2 | [CA]2 z4 z2 | z8 | z8 | z8 | %163
 [EGc]4 c2 B2 | [EB]2 A2 d3 e | [Fcf]2 [Fc]2 [DB]2 [GB]2 | [GBc]2 [FA]2 [DFG]2 [EG]2 | %167
 FA [Ac]2 [GB]2 [Gc]2 | [Ac]2 c4 [F=B]2 | c2 [Gc]2 c4 | [Gc]2 ce e2 d2 | d2 ce e2 [df]c | %172
 fe [Ace]2 [Acd]2 [G=Bd]2 | [Gc]2 [EG]2 [DF]2 [DG]2 | [CEG]2 F2 [FB]2 [EB]2 | A3 [Ad] d2 cc | %176
 c2 B2 [EB]2 [FA]2 | [FG]2 [EG][Ec] [Acd]2 [GBd]2 | [GBc]2 [FA]2 [AB]2 [GBc]2 | ABcA d2 B2 | %180
 B2 Ac [FGd]2 [EGc]2 | [EFc]2 [DFB]2 [DEB]2 [^CEA]2 | [DA]2 [FA]2 [DB]2 z2 | [^CEA]4 A2 G2 | %184
 [^CG]2 [DF]2 B4 | A4 [B,G]2 [GB]2 | [EGA]2 [DF][DA] B2 c2 | [D^Fc]2 [GB]2 [_EGA]2 [=F=B]2 | %188
 [F=B]2 [Ec][Gc] [Acd]2 [FB]2 | c2 c2 AG/F/ [CE][Gc] | AG/F/ z c [DAc]2 [DF=B]2 | %191
 [EG=B]2 [A=c]2 c2 d2 | =B2 Ae e2 e2 | dc/=B/ Ac [Dc]2 [DB]2 | [C=B]2 [EA][Ec] [Fc]2 [Ad]2 | %195
 [^Gd]2 c2 [FA=B]2 [EGB]2 | [CA]2 [Ec]2 [DAc]2 dc | [DGc]2 [DGB]2 [CGB]2 cB | %198
 BA z [CF] [DF]2 [DG]2 | [EG]2 [EA]2 [FA]2 [FB]2 | [GB]2 cB [CA]2 [DA][Fd] | %201
 [Gd]2 c2 [Fc]2 [F=B]2 | [EGB]2 z4 z2 | z8 | z8 | z4 [Gc]4 | c2 B2 [EB]2 [CA]2 | %207
 A2 G2 [CF]2 [Fc]2 | [DB]2 [GB]2 [GBc]2 [Ac]2 | [DAd]2 [GBd]2 [EBc]2 z [Ec] | %210
 [Fc]2 B2 [CFB]2 [CA]2 | [B,DG]2 [CG]2 [CA]2 z [Fc] | [Fcd]2 [GBd]2 [GBc]2 [FA]2 | %213
 [DAB]2 Bc AB c2 | [Ad]2 [GBd]2 [GBc]2 [FA]2 | [DFG]2 [EG]2 [A,F]2 [CFc]2 | %216
 [DFB]2 [FB]2 !fermata![EB]2 z2 | z2 [CA]2 [CFG]2 [CEG]2 | C8 |][M:12/8] [CFA]3 |: %220
 [A,CF]3 [CFA]3 z3 | [CA]2 [B,EG] FGA [EG]2 F c2 B | A2 G F2 A [EG]3 [EGc]3 | %223
 [FAc]3 z2 [Gc] [FAd]2 [FAd] [G=c]2 [Ac] | [D=B]3 [Gc]3 [GA]3 [FB]3 | G3 [Ac]2 =B c2 c [DBc]3 | %226
 [EGc]3 [Fc]2 [FAc] [F=B]2 [DFG] [EG]2 [Gc] | [FAc]3- [FAc]3 [DFA]2 [Gc] [Ac]2 [FBd] | %228
 [G=B]2 [Ec] [Ad]2 [Fc] [DB]2 z z3 | z3 z2 [Gd] [EGc]2 [FAc] [G=B]3 | [EGc]3 z3 z3 z2 [FGd] | %231
 [EGc]2 [FAc] [G=B]3 [EGc]3 z2 [EGc] | [FAc]3 c2 c [Ad]2 [Fc] [EGc]2 [DG=B] | [EGc]3 :: %234
 [CEG]3 [EGc]3 z3 | [EGc]3 [Gce]3 [EGc]3 z3 | [Gce]3 [Gd]3 ^c3 [Ad]2 [Gce] | %237
 [Adf]3 [Bf]3 [Be]3 [Acf]3 | [Ad]3 [Gd]3 [GA^c]3 d3 | [GBd]3 [DG]2 [DB] [DA]2 [FAd] [EA^c]3 | %240
 [FAd]3 [DFA]3 [DF=B]3 d2 B | [Gc]3 z2 [_EGc] [EAc]3 c2 A | [FB]3 z2 [Fc] [DB]2 [=EG] [CA]2 [DFB] | %243
 GcB [CA]2 [CA] [DFB]3 z3 | [EAc]3 z3 [FAd]3 z3 | [Gce]3 z3 [Acf]3 z3 | d2 e f3 [Gce]3 [Fc]3 | %247
 [Dc]3 [DB]3 [CB]3 [CA]3 | [DFB]2 [Fd] c2 B [CA]2 [DB] [DB]2 [EG] | %249
 [Fc]2 [Fd] [EGc]2 [FAd] [EGc]2 [Fc] [FB]2 [Gc] | [Ac]2 [CA] [DG]2 [EB] A2 B [EGc]3 | %251
 [FA]2 [CFA] [DB]2 [CA] [CEG]3 z3 | z3 z2 [GBc] [FAc]2 [Fd] c2 B | [CFA]3 z3 z3 z2 [GBc] | %254
 [FAc]2 [Fd] c2 B [CA]3 [DG]2 [CA] | [EG]3 z2 [EG] [CA]2 [DB] [EG]3 | [A,CF]3 :| %257
V:5
 x4 A,B,CD | x8 | F2 FE CD x2 | F2 x6 | x8 | x8 | x4 CC x2 | x6 D2 | D2 CF x2 F x | x [CF] x6 | %10
 AGF[EG] x4 | AG x6 | x8 | [Ac][GB] ^F2 x4 | x2 D=F x4 | F2 E[CF] x4 | x8 | x4 CD x2 | F2 x6 | %19
 F2 E[CF] x4 | x8 | CD C2 x4 | x8 |][M:3/8] x3 | x3 | x3 | x3 | x3 | x3 | x3 | x3 | D2 [CE] | x3 | %33
 [FG] E2 | F2 D | E2 F | x3 | x3 | x3 | x3 | x3 | GGE | x3 | x3 | D2 D | x3 | C/[DG]/[CF]E | x3 | %48
 x3 | x3 | x3 | x3 | x3 | x3 | x3 | GGE | [CG][DF]A | x3 | [Ae] [=Bd]2 | [Gd]c[Gc] | GFF | x3 | %62
 x3 | x3 :: x3 | x3 | x3 | x3 | x3 | x3 | x3 | x3 | F[FA][GB] | x3 | x3 | x3 | x3 | x3 | FG x | %79
 x3 | x3 | x3 | x3 | x EA | x3 | x3 | D2 D | D2 x | x3 | x3 | x3 | x3 | x3 | x3 | E2 C | x3 | x3 | %97
 x3 | x3 | GEG | x3 | FEF | F2 [GB] | E2 [FA] | [DF]2 [CE] | x3 | x3 | x3 | x3 | x3 | x3 | x3 | %112
 x3 :| x/4 |[M:3/4] x6 | [DF]G D2 x2 | [DE]2 [^CE]4 | x6 | x6 | x6 | x6 | x6 | D2 D2 x2 | x6 | x6 | %125
 x6 | x6 | x6 | x6 | x6 | x6 | [CF]6 | x6 | D2 x4 | [DE]4 [CE]2 | [CF]2 [=B,E]4 | E2 _E2 x2 | %137
 [C_E]2 D4 | x4 [DG]2 | [^CE]4 E2 | F2 [DF]3 x | [DF]G D2 x2 | x6 | x6 | x6 | x6 | E4 x2 | x6 | %148
 x2 D2 G2 | [EG]2 ^C2 x2 | x6 | [DF]6 | x6 | D4 ED | x6 |][M:4/4] F2 F2 x4 | F2 F2 x4 | %157
 C2 F2 D2 D2 | x2 F2 x4 | x8 | x8 | x8 | x8 | x4 F4 | x2 F2 A2 G2 | x8 | x8 | C2 x6 | x2 GE F2 x2 | %169
 EF x2 G2 F2 | FE G2 [FA]2 G2 | EF G2 A2 A2 | [G=B]2 x6 | x8 | x2 C2 x4 | C2 DF G3 E | F4 x4 | x8 | %178
 x8 | G2 F2 A2 GF | E2 F2 x4 | x8 | x8 | x4 D4 | x4 [DF]2 E2 | E2 D2 x4 | x4 [DE]2 [C^F]2 | x8 | %188
 x8 | EFGE C x/ CC x/ | C=B,[CE]G x4 | x2 E2 FGAF | [EG]2 E2 [FA]2 AF | [EA]2 EE x4 | x8 | %195
 x2 AE x4 | x6 [DA]2 | x6 G2 | F2 x6 | x8 | x2 G2 x4 | x2 GE x4 | x8 | x8 | x8 | x4 F2 E2 | F4 x4 | %207
 D4 x4 | x6 FE | x8 | x2 FG x4 | x8 | x8 | x2 G2 G2 FA | x8 | x8 | x8 | x8 | [A,F]8 |] %219
[M:12/8] x3 |: x9 | x3 C2 C C3 GFE | C3 C2 C x6 | x12 | x12 | x3 E3 AGF x3 | x12 | x12 | x12 | %229
 x9 D2 F | x12 | x3 D2 F x6 | x3 EFG x6 | x3 :: x9 | x12 | x6 G2 B x3 | x12 | x9 AGF | x12 | %240
 x9 [FG]3 | F _E2 x6 [EF]3 | _E D2 x9 | E2 E x9 | x12 | x12 | G3 A3 x6 | x12 | x3 EFG x6 | x12 | %250
 x6 F3 x3 | x12 | x9 [EG]3 | x12 | x3 E3 x6 | x9 C2 B, | x3 :| %257
V:6
 F,,4- F,,G,,A,,B,, | C,D,E,F, C,B,,A,,F,, | B,,A,,G,,C, F,,2 z (E,/>D,/) | %3
 D,2 z (C,/>B,,/) B,,A,,G,,C, | F,,F,D,G,, C,G, C2- | CF, B,3 B,A,B, | G,A,/B,/ CC, F,F,/G,/ A,B, | %7
 CC, z C, D,E,F,G, | A,A,, z A,, B,,C,D,E, | F,F,, z D, G,=B,CE | FEDC G,G,, z E, | %11
 F,E, z F, D,C, z F, | D,C,G,G,, C,C/B,/ A,G, | ^F,G,DD, G,G,,G,=F, | E,F,B,,D, C,CA,F, | %15
 B,,A,,G,,F,, C,C,, z D | CC,B,,B, A,A,,G,,E, | F,A,,/>B,,/ C,C,, F,,2 z TE,/>D,/ | %18
 D,2 z TC,/>B,,/ B,,2 z A,, | B,,A,,G,,F,, C,C,, z D | CC,B,,B, A,A,,G,,E, | F,B,,C,C,, F,,2 z E, | %22
 D,4 C,4 |][M:3/8] F,,A,,C, | F,/C,/F,/C,/G,/C,/ | A,/C,/F,/C,/G,/C,/ | A,/C,/F,/C,/G,/C,/ | %27
 A,F,E, | F,F,, z | F,F,,B,, | C,CA, | F,G,G,, | C,D,B,, | C,CA, | DB,G, | CA,F, | B,B,,G,, | %37
 C,CB, | A,F,E, | D,DC | B,A,G, | CE,C, | F,F,E, | D,D,C, | B,,G,,B,, | C,C,/B,,/A,/G,/ | %46
 F,/B,,/C,C,, | F,,/C,/F,/C,/G,/C,/ | A,/C,/F,/C,/G,/C,/ | A,/C,/F,/C,/G,/C,/ | A,F,,B,, | %51
 C,/G,/C/G,/D/G,/ | E/G,/C/G,/D/G,/ | E/G,/C/G,/D/G,/ | EC,F, | G,E,C, | F,D,F, | G,CA, | D,G,G,, | %59
 C,E,C, | F,F,,D, | G,G,,C, | F,G,G,, | C,3 :: C,,E,,G,, | C,/G,,/C,/G,,/D,/G,,/ | E,C,=B,, | %67
 C,>B,A,/G,/ | F,/C,/F,/C,/G,/C,/ | A,/C,/F,/C,/G,/C,/ | A,F,E, | F,A,C | F,D,G, | A,A,, z | %74
 D,A,, z | G,G,, z | C,G,, z | F,F,, z | B,B,, z | A,,F,,A,, | D,F,,A,, | DG,G,, | A,,^CD | %83
 G,A,A,, | D,/D,/G,/D,/A,/D,/ | B,/D,/G,/D,/A,/D,/ | B,G,^F, | G,B,,D, | G,,2 z | %89
 z/ C,/F,/C,/G,/C,/ | A,/C,/F,/C,/G,/C,/ | A,F,E, | F,F,, z | F,F,,B, | CC,,E, | F,F,, z | %96
 B,B,, z | CC, z | DD, z | E,C,E, | F,D,B,, | C,CA, | DB,G, | CA,F, | B,B,,G,, | C,CD | B,CC, | %107
 F,F,D, | E,A,A,, | D,G,G,, | C,>C,F, | B,,C,C,, | F,3 :| z/8 |[M:3/4] D,2 D2 A,2 | B,2 F,2 z2 | %116
 G,2 A,2 A,,2 | D,2 D,,2 A,2 | z2 B,2 A,2 | G,4 F,2 | z2 E,2 D,2 | A,2 A,,2 A,2 | B,2 F,2 z2 | %123
 G,2 A,2 A,,2 | D,2 D,2 A,2 | z2 B,2 A,2 | G,4 F,2 | z2 E,2 D,2 | A,2 D2 A,2 | B,2 B,2 A,2 | %130
 G,2 D,2 E,2 | F,4 F,,2 | G,,2 A,,4 | D,,2 D2 =B,2 | _A,2 E,2 =A,2 | F,>D, E,2 E,,2 | A,,4 G,2 | %137
 ^F,6 | G,4 G,,2 | A,,2 A,2 ^C2 | D2 A,4 | B,2 F,2 z2 | G,2 A,2 A,,2 | D,2 D,,2 A,,2 | z2 B,2 A,2 | %145
 z2 D,3 E, | ^C,2 A,,2 D,2 | F,2 G,2 A,2 | B,2 G,2 E,2 | ^C,2 A,,2 D,2 | G,2 A,2 A,,2 | D,4 z B,, | %152
 C,2 F,2 z F,, | B,,6 | A,,6 |][M:4/4] F,G,A,F, B,B,,D,B,, | F,G,A,F, G,F,E,C, | %157
 F,G,A,F, B,B,, B,2- | B,2 A,F, G,2 C,2 | F,,2 z4 z2 | z8 | z8 | z8 | C,4 D,3 E,/D,/ | %164
 C,2 F,2 B,,4 | A,,2 A,3 G,G,F, | E,CDA, B,DCB, | A,F, F4 E2 | F2 EC D2 G,2 | C,D,E,C, F,G,A,F, | %170
 CC,E,C, D,C,=B,,G,, | C,D,E,C, F,G,A,F, | G,E,A,G, F,D,G,F, | E,C, C4 B,2- | B,2 A,F, G,2 C,2 | %175
 F,2 z D, E,2 z A,, | D,2 z G, C2 DB, | C2 z A, F,D,G,F, | E,C,D,F, G,,F,E,C, | F,G,A,F, B,CDB, | %180
 CA,DC B,G,CB, | A,F,B,A, G,E,A,G, | F,D, D2 G,2 z2 | A,,4 B,,3 C,/B,,/ | A,,2 D,2 G,,4 | %185
 F,,2 F,3 E,E,D, | ^C,A,,B,F, G,E,A,A,, | D,D_EB, CA,DD, | G,G,,A,E, F,D,G,G,, | %189
 C,D,E,C, F,G,A,E, | F,G,A,E, F,D,G,G,, | C,E,A,,C, D,E,F,D, | E,D,C,A,, D,E,F,D, | %193
 A,=B,CA, B,A,_A,E, | A,=B,CC, D,E,F,D, | E,EFC D=B,EE, | A,A,,A,G, ^F,D,E,F, | %197
 G,G,,G,F, E,C,D,E, | F,F,, z A,, B,,A,,B,,G,, | C,B,,C,A,, D,C,D,D,, | E,D,E,C, F,E,F,D, | %201
 E,D,E,A,, D,C,D,G,, | C,2 z4 z2 | z8 | z8 | z4 C,4 | D,3 E,/D,/ C,2 F,2 | B,,4 A,,2 A,2- | %208
 A,G,G,F, E,C,F,F,, | B,,C,D,B,, C,2 z C, | D,C,D,E, F,C, F,2- | F,2 E,2 F,2 z A, | %212
 B,A,G,F, E,C,D,F, | G,,F,E,C, F,G,A,F, | B,B,,D,B,, C,CDA, | B,G,CC, D,F,A,,A, | %216
 B,B,,D,B,, !fermata!C,2 z2 | z2 F,,2 C,2 C,,2 | F,,8 |][M:12/8] F,3 |: F,,3 F,3 z3 | %221
 F,,2 G,, A,,G,,F,, C,2 D, E,D,C, | F,2 G, A,G,F, C3 C,3 | F,3 z2 E, D,2 G, E,2 F, | %224
 G,3 E,3 F,3 D,3 | E,3 A,2 G, F,E,D, G,2 G,, | C,3 A,,2 F,, G,,A,,=B,, C,D,E, | %227
 F,3- F,3- F,2 E, E,2 D, | D,2 C, F,,G,,A,, G,,2 z z3 | z3 z2 =B, C2 F, G,2 G,, | %230
 C,3 z3 z3 z2 =B, | C2 F, G,2 G,, C,3 z2 C, | C3 C,D,E, F,2 C, G,2 G,, | C,3 :: C,,3 C,3 z3 | %235
 C3 C,3 C3 z3 | C3 B,3 A,2 G, F,2 E, | D,3 G,3 C3 F,3 | B,3 B,,3 A,,2 G, F,E,D, | %239
 G,2 A, B,A,G, F,E,D, A,2 A,, | D,3 D,,3 G,,3 =B,,2 G, | C,3 z2 C, F,,2 G,, A,,G,,F,, | %242
 B,,3 z2 A, G,2 C F,2 B, | C2 C, F,2 F,, B,,3 z3 | A,,3 z3 D,3 z3 | C,3 z3 F,3 z3 | %246
 B,,3 F,,3 C,3 A,3 | B,3 G,3 A,3 F,3 | B,,3 C,3 F,-F,B, G,2 C | A,2 B, C2 F, C,2 A,, D,2 E, | %250
 F,2 F,, B,,2 G,, F,,3 C,3 | D,2 F, B,,2 F,, C,3 z3 | z3 z2 E, F,2 B,, C,2 C,, | F,,3 z3 z3 z2 E, | %254
 F,2 B,, C,2 C,, F,,2 F,, B,,2 F,, | C,3 z2 C, F,2 F,, C,2 C,, | F,,3 :| %257
V:7
 x8 | x8 | x8 | x8 | x8 | x8 | x8 | x8 | x8 | x8 | x8 | x8 | x8 | x8 | x8 | x8 | x8 | x8 | x8 | %19
 x8 | x8 | x8 | x8 |][M:3/8] x3 | x3 | x3 | x3 | x3 | x3 | x3 | x3 | x3 | x3 | x3 | x3 | x3 | x3 | %37
 x3 | x3 | x3 | x3 | x3 | x3 | x3 | x3 | x3 | x3 | x3 | x3 | x3 | x3 | x3 | x3 | x3 | x3 | x3 | %56
 x3 | x3 | x3 | x3 | x3 | x3 | x3 | x3 :: x3 | x3 | x3 | x3 | x3 | x3 | x3 | x3 | x3 | x3 | x3 | %75
 x3 | x3 | x3 | x3 | x3 | x3 | x3 | x3 | x3 | x3 | x3 | x3 | x3 | x3 | x3 | x3 | x3 | x3 | x3 | %94
 x3 | x3 | x3 | x3 | x3 | x3 | x3 | x3 | x3 | x3 | x3 | x3 | x3 | x3 | x3 | x3 | x3 | x3 | x3 :| %113
 x/4 |[M:3/4] x6 | x6 | x6 | x6 | x6 | x6 | x6 | x6 | x6 | x6 | x6 | x6 | x6 | x6 | x6 | x6 | x6 | %131
 x6 | x6 | x6 | x6 | x6 | x6 | x6 | [B,D]4 x2 | x6 | x5 [^CE] | x6 | x6 | x6 | x6 | x6 | x6 | x6 | %148
 x6 | x6 | x6 | x6 | x6 | x6 | x6 |][M:4/4] x8 | x8 | x8 | x8 | x8 | x8 | x8 | x8 | x8 | x8 | x8 | %166
 x8 | x8 | x8 | x8 | x8 | x8 | x8 | x8 | x8 | x8 | x8 | x8 | x8 | x8 | x8 | x8 | x8 | x8 | x8 | %185
 x8 | x8 | x8 | x8 | x8 | x8 | x8 | x8 | x8 | x8 | x8 | x8 | x8 | x8 | x8 | x8 | x8 | x8 | x8 | %204
 x8 | x8 | x8 | x8 | x8 | x8 | x8 | x8 | x8 | x8 | x8 | x8 | x8 | x8 | x8 |][M:12/8] x3 |: x9 | %221
 x12 | x12 | x12 | x12 | x12 | x12 | x12 | x12 | x12 | x12 | x12 | x12 | x3 :: x9 | x12 | x12 | %237
 x12 | x12 | x12 | x12 | x12 | x12 | x12 | x12 | x12 | x12 | x12 | x12 | x12 | x12 | x12 | x12 | %253
 x12 | x12 | x12 | x3 :| %257

